ox-hugo/cINGfRg.svg

<?xml version="1.0" encoding="UTF-8" standalone="no"?>
<svg
   width="172.64426pt"
   height="32.546875pt"
   viewBox="0 0 172.64426 32.546877"
   version="1.1"
   id="svg44"
   xmlns:xlink="http://www.w3.org/1999/xlink"
   xmlns="http://www.w3.org/2000/svg"
   xmlns:svg="http://www.w3.org/2000/svg">
  <defs
     id="defs20">
    <g
       id="g15">
      <g
         id="glyph-0-0" />
      <g
         id="glyph-0-1">
        <path
           d="m 3.3125,-0.75 c 0.046875,0.390625 0.3125,0.8125 0.78125,0.8125 0.21875,0 0.828125,-0.140625 0.828125,-0.953125 v -0.5625 h -0.25 v 0.5625 c 0,0.578125 -0.25,0.640625 -0.359375,0.640625 -0.328125,0 -0.375,-0.453125 -0.375,-0.5 v -1.984375 c 0,-0.421875 0,-0.8125 -0.359375,-1.1875 C 3.1875,-4.3125 2.6875,-4.46875 2.21875,-4.46875 c -0.828125,0 -1.515625,0.46875 -1.515625,1.125 0,0.296875 0.203125,0.46875 0.46875,0.46875 0.28125,0 0.453125,-0.203125 0.453125,-0.453125 0,-0.125 -0.046875,-0.453125 -0.515625,-0.453125 C 1.390625,-4.140625 1.875,-4.25 2.1875,-4.25 c 0.5,0 1.0625,0.390625 1.0625,1.28125 v 0.359375 c -0.515625,0.03125 -1.203125,0.0625 -1.828125,0.359375 -0.75,0.34375 -1,0.859375 -1,1.296875 0,0.8125 0.96875,1.0625 1.59375,1.0625 0.65625,0 1.109375,-0.40625 1.296875,-0.859375 z M 3.25,-2.390625 v 1 c 0,0.9375 -0.71875,1.28125 -1.171875,1.28125 -0.484375,0 -0.890625,-0.34375 -0.890625,-0.84375 0,-0.546875 0.421875,-1.375 2.0625,-1.4375 z m 0,0"
           id="path3" />
      </g>
      <g
         id="glyph-0-2">
        <path
           d="m 1.71875,-3.765625 v -3.15625 L 0.28125,-6.8125 V -6.5 c 0.703125,0 0.78125,0.0625 0.78125,0.5625 V 0 h 0.25 c 0,-0.015625 0.078125,-0.15625 0.359375,-0.625 0.140625,0.234375 0.5625,0.734375 1.296875,0.734375 1.1875,0 2.21875,-0.984375 2.21875,-2.265625 0,-1.265625 -0.96875,-2.25 -2.109375,-2.25 -0.78125,0 -1.203125,0.46875 -1.359375,0.640625 z m 0.03125,2.625 V -3.1875 c 0,-0.1875 0,-0.203125 0.109375,-0.359375 C 2.25,-4.109375 2.796875,-4.1875 3.03125,-4.1875 c 0.453125,0 0.8125,0.265625 1.046875,0.640625 0.265625,0.40625 0.28125,0.96875 0.28125,1.390625 0,0.359375 -0.015625,0.953125 -0.296875,1.40625 -0.21875,0.3125 -0.59375,0.640625 -1.125,0.640625 -0.453125,0 -0.8125,-0.234375 -1.046875,-0.609375 C 1.75,-0.921875 1.75,-0.953125 1.75,-1.140625 Z m 0,0"
           id="path6" />
      </g>
      <g
         id="glyph-0-3">
        <path
           d="m 1.171875,-2.171875 c 0,-1.625 0.8125,-2.046875 1.34375,-2.046875 0.09375,0 0.71875,0.015625 1.0625,0.375 -0.40625,0.03125 -0.46875,0.328125 -0.46875,0.453125 0,0.265625 0.1875,0.453125 0.453125,0.453125 0.265625,0 0.46875,-0.15625 0.46875,-0.46875 0,-0.671875 -0.765625,-1.0625 -1.53125,-1.0625 -1.25,0 -2.15625,1.078125 -2.15625,2.3125 0,1.28125 0.984375,2.265625 2.140625,2.265625 1.328125,0 1.65625,-1.203125 1.65625,-1.296875 0,-0.09375 -0.109375,-0.09375 -0.140625,-0.09375 -0.078125,0 -0.109375,0.03125 -0.125,0.09375 -0.28125,0.921875 -0.9375,1.046875 -1.296875,1.046875 -0.53125,0 -1.40625,-0.421875 -1.40625,-2.03125 z m 0,0"
           id="path9" />
      </g>
      <g
         id="glyph-0-4">
        <path
           d="m 1.71875,-3.984375 h 1.4375 v -0.3125 H 1.71875 V -6.125 h -0.25 c 0,0.8125 -0.296875,1.875 -1.28125,1.921875 v 0.21875 h 0.84375 v 2.75 c 0,1.21875 0.9375,1.34375 1.296875,1.34375 0.703125,0 0.984375,-0.703125 0.984375,-1.34375 v -0.5625 h -0.25 V -1.25 c 0,0.734375 -0.296875,1.109375 -0.671875,1.109375 -0.671875,0 -0.671875,-0.90625 -0.671875,-1.078125 z m 0,0"
           id="path12" />
      </g>
    </g>
    <clipPath
       id="clip-0">
      <path
         clip-rule="nonzero"
         d="m 64,0 h 54 V 32.546875 H 64 Z m 0,0"
         id="path17" />
    </clipPath>
  </defs>
  <path
     fill="none"
     stroke-width="0.3985"
     stroke-linecap="butt"
     stroke-linejoin="miter"
     stroke="#000000"
     stroke-opacity="1"
     stroke-miterlimit="10"
     d="m 65.464156,5.691406 h 6.550782 m -6.550782,10.582031 h 6.550782 m -6.550782,10.582032 h 6.550782 M 109.12041,16.273437 h -6.55079"
     id="path22" />
  <g
     clip-path="url(#clip-0)"
     id="g26"
     transform="translate(-3.6022501)">
    <path
       fill="none"
       stroke-width="0.797"
       stroke-linecap="butt"
       stroke-linejoin="miter"
       stroke="#000000"
       stroke-opacity="1"
       stroke-miterlimit="10"
       d="m -32.738812,15.874563 v -31.75 c 15.066406,0 27.28125,7.109375 27.28125,15.8749995 0,8.7695315 -12.214844,15.8750005 -27.28125,15.8750005 z M -2.184125,-4.375e-4 c 0,0.9062505 -0.730469,1.6367185 -1.636719,1.6367185 -0.902343,0 -1.636718,-0.730468 -1.636718,-1.6367185 0,-0.9023435 0.734375,-1.6367185 1.636718,-1.6367185 0.90625,0 1.636719,0.734375 1.636719,1.6367185 z m 0,0"
       transform="matrix(1,0,0,-1,108.356,16.273)"
       id="path24" />
  </g>
  <g
     fill="#000000"
     fill-opacity="1"
     id="g30"
     transform="translate(-3.6022501)">
    <use
       xlink:href="#glyph-0-1"
       x="3.8740001"
       y="7.835"
       id="use28" />
  </g>
  <g
     fill="#000000"
     fill-opacity="1"
     id="g34"
     transform="translate(-3.6022501)">
    <use
       xlink:href="#glyph-0-2"
       x="3.3210001"
       y="19.732"
       id="use32" />
  </g>
  <g
     fill="#000000"
     fill-opacity="1"
     id="g38"
     transform="translate(-3.6022501)">
    <use
       xlink:href="#glyph-0-3"
       x="4.428"
       y="29"
       id="use36" />
  </g>
  <g
     fill="#000000"
     fill-opacity="1"
     id="g42"
     transform="translate(-3.6022501)">
    <use
       xlink:href="#glyph-0-4"
       x="172.93401"
       y="19.336"
       id="use40" />
  </g>
</svg>

<?xml version="1.0" encoding="UTF-8" standalone="no"?>
<svg
   width="180.129pt"
   height="32.545pt"
   viewBox="0 0 180.129 32.545"
   version="1.1"
   id="svg44"
   xmlns:xlink="http://www.w3.org/1999/xlink"
   xmlns="http://www.w3.org/2000/svg"
   xmlns:svg="http://www.w3.org/2000/svg">
  <defs
     id="defs20">
    <g
       id="g15">
      <g
         id="glyph-0-0" />
      <g
         id="glyph-0-1">
        <path
           d="M 3.3125 -0.75 C 3.359375 -0.359375 3.625 0.0625 4.09375 0.0625 C 4.3125 0.0625 4.921875 -0.078125 4.921875 -0.890625 L 4.921875 -1.453125 L 4.671875 -1.453125 L 4.671875 -0.890625 C 4.671875 -0.3125 4.421875 -0.25 4.3125 -0.25 C 3.984375 -0.25 3.9375 -0.703125 3.9375 -0.75 L 3.9375 -2.734375 C 3.9375 -3.15625 3.9375 -3.546875 3.578125 -3.921875 C 3.1875 -4.3125 2.6875 -4.46875 2.21875 -4.46875 C 1.390625 -4.46875 0.703125 -4 0.703125 -3.34375 C 0.703125 -3.046875 0.90625 -2.875 1.171875 -2.875 C 1.453125 -2.875 1.625 -3.078125 1.625 -3.328125 C 1.625 -3.453125 1.578125 -3.78125 1.109375 -3.78125 C 1.390625 -4.140625 1.875 -4.25 2.1875 -4.25 C 2.6875 -4.25 3.25 -3.859375 3.25 -2.96875 L 3.25 -2.609375 C 2.734375 -2.578125 2.046875 -2.546875 1.421875 -2.25 C 0.671875 -1.90625 0.421875 -1.390625 0.421875 -0.953125 C 0.421875 -0.140625 1.390625 0.109375 2.015625 0.109375 C 2.671875 0.109375 3.125 -0.296875 3.3125 -0.75 Z M 3.25 -2.390625 L 3.25 -1.390625 C 3.25 -0.453125 2.53125 -0.109375 2.078125 -0.109375 C 1.59375 -0.109375 1.1875 -0.453125 1.1875 -0.953125 C 1.1875 -1.5 1.609375 -2.328125 3.25 -2.390625 Z M 3.25 -2.390625 "
           id="path3" />
      </g>
      <g
         id="glyph-0-2">
        <path
           d="M 1.71875 -3.765625 L 1.71875 -6.921875 L 0.28125 -6.8125 L 0.28125 -6.5 C 0.984375 -6.5 1.0625 -6.4375 1.0625 -5.9375 L 1.0625 0 L 1.3125 0 C 1.3125 -0.015625 1.390625 -0.15625 1.671875 -0.625 C 1.8125 -0.390625 2.234375 0.109375 2.96875 0.109375 C 4.15625 0.109375 5.1875 -0.875 5.1875 -2.15625 C 5.1875 -3.421875 4.21875 -4.40625 3.078125 -4.40625 C 2.296875 -4.40625 1.875 -3.9375 1.71875 -3.765625 Z M 1.75 -1.140625 L 1.75 -3.1875 C 1.75 -3.375 1.75 -3.390625 1.859375 -3.546875 C 2.25 -4.109375 2.796875 -4.1875 3.03125 -4.1875 C 3.484375 -4.1875 3.84375 -3.921875 4.078125 -3.546875 C 4.34375 -3.140625 4.359375 -2.578125 4.359375 -2.15625 C 4.359375 -1.796875 4.34375 -1.203125 4.0625 -0.75 C 3.84375 -0.4375 3.46875 -0.109375 2.9375 -0.109375 C 2.484375 -0.109375 2.125 -0.34375 1.890625 -0.71875 C 1.75 -0.921875 1.75 -0.953125 1.75 -1.140625 Z M 1.75 -1.140625 "
           id="path6" />
      </g>
      <g
         id="glyph-0-3">
        <path
           d="M 1.171875 -2.171875 C 1.171875 -3.796875 1.984375 -4.21875 2.515625 -4.21875 C 2.609375 -4.21875 3.234375 -4.203125 3.578125 -3.84375 C 3.171875 -3.8125 3.109375 -3.515625 3.109375 -3.390625 C 3.109375 -3.125 3.296875 -2.9375 3.5625 -2.9375 C 3.828125 -2.9375 4.03125 -3.09375 4.03125 -3.40625 C 4.03125 -4.078125 3.265625 -4.46875 2.5 -4.46875 C 1.25 -4.46875 0.34375 -3.390625 0.34375 -2.15625 C 0.34375 -0.875 1.328125 0.109375 2.484375 0.109375 C 3.8125 0.109375 4.140625 -1.09375 4.140625 -1.1875 C 4.140625 -1.28125 4.03125 -1.28125 4 -1.28125 C 3.921875 -1.28125 3.890625 -1.25 3.875 -1.1875 C 3.59375 -0.265625 2.9375 -0.140625 2.578125 -0.140625 C 2.046875 -0.140625 1.171875 -0.5625 1.171875 -2.171875 Z M 1.171875 -2.171875 "
           id="path9" />
      </g>
      <g
         id="glyph-0-4">
        <path
           d="M 1.71875 -3.984375 L 3.15625 -3.984375 L 3.15625 -4.296875 L 1.71875 -4.296875 L 1.71875 -6.125 L 1.46875 -6.125 C 1.46875 -5.3125 1.171875 -4.25 0.1875 -4.203125 L 0.1875 -3.984375 L 1.03125 -3.984375 L 1.03125 -1.234375 C 1.03125 -0.015625 1.96875 0.109375 2.328125 0.109375 C 3.03125 0.109375 3.3125 -0.59375 3.3125 -1.234375 L 3.3125 -1.796875 L 3.0625 -1.796875 L 3.0625 -1.25 C 3.0625 -0.515625 2.765625 -0.140625 2.390625 -0.140625 C 1.71875 -0.140625 1.71875 -1.046875 1.71875 -1.21875 Z M 1.71875 -3.984375 "
           id="path12" />
      </g>
    </g>
    <clipPath
       id="clip-0">
      <path
         clip-rule="nonzero"
         d="M 64 0 L 118 0 L 118 32.546875 L 64 32.546875 Z M 64 0 "
         id="path17" />
    </clipPath>
  </defs>
  <path
     fill="none"
     stroke-width="0.3985"
     stroke-linecap="butt"
     stroke-linejoin="miter"
     stroke="rgb(0%, 0%, 0%)"
     stroke-opacity="1"
     stroke-miterlimit="10"
     d="M -39.289594 10.581594 L -32.738812 10.581594 M -39.289594 -0.0004375 L -32.738812 -0.0004375 M -39.289594 -10.582469 L -32.738812 -10.582469 M 4.366656 -0.0004375 L -2.184125 -0.0004375 "
     transform="matrix(1, 0, 0, -1, 108.356, 16.273)"
     id="path22" />
  <g
     clip-path="url(#clip-0)"
     id="g26">
    <path
       fill="none"
       stroke-width="0.797"
       stroke-linecap="butt"
       stroke-linejoin="miter"
       stroke="#000000"
       stroke-opacity="1"
       stroke-miterlimit="10"
       d="m -32.738812,15.874563 v -31.75 c 15.066406,0 27.28125,7.109375 27.28125,15.8749995 0,8.7695315 -12.214844,15.8750005 -27.28125,15.8750005 z M -2.184125,-4.375e-4 c 0,0.9062505 -0.730469,1.6367185 -1.636719,1.6367185 -0.902343,0 -1.636718,-0.730468 -1.636718,-1.6367185 0,-0.9023435 0.734375,-1.6367185 1.636718,-1.6367185 0.90625,0 1.636719,0.734375 1.636719,1.6367185 z m 0,0"
       transform="matrix(1,0,0,-1,108.356,16.273)"
       id="path24" />
  </g>
  <g
     fill="#000000"
     fill-opacity="1"
     id="g30">
    <use
       xlink:href="#glyph-0-1"
       x="3.8740001"
       y="7.835"
       id="use28" />
  </g>
  <g
     fill="#000000"
     fill-opacity="1"
     id="g34">
    <use
       xlink:href="#glyph-0-2"
       x="3.3210001"
       y="19.732"
       id="use32" />
  </g>
  <g
     fill="#000000"
     fill-opacity="1"
     id="g38">
    <use
       xlink:href="#glyph-0-3"
       x="4.428"
       y="29"
       id="use36" />
  </g>
  <g
     fill="#000000"
     fill-opacity="1"
     id="g42">
    <use
       xlink:href="#glyph-0-4"
       x="172.93401"
       y="19.336"
       id="use40" />
  </g>
</svg>
